images/lupa.svg

<svg width="112" height="113" viewBox="0 0 112 113" fill="none" xmlns="http://www.w3.org/2000/svg">
<path d="M65.2126 36.1911L65.2126 36.1911C68.5575 36.8475 71.3005 39.1306 72.5526 42.3007C73.8048 45.4708 73.3623 49.012 71.3689 51.7773L71.7745 52.0697L71.3689 51.7773L66.3259 58.7734C65.5515 59.8474 64.4773 60.6254 63.2151 61.0262C61.953 61.427 60.6264 61.4112 59.3748 60.9807C58.1226 60.5496 57.0672 59.746 56.3189 58.6539C56.0549 58.2683 55.8383 57.8604 55.671 57.437C55.3634 56.6583 55.2201 55.822 55.2528 54.9643C55.395 51.2348 53.9702 47.5904 51.3395 44.9467L51.3395 44.9467L51.3355 44.9428L51.2684 44.8768C51.2682 44.8766 51.268 44.8764 51.2678 44.8762C50.3271 43.9444 49.7251 42.7623 49.5254 41.4538C49.3256 40.1449 49.547 38.837 50.1664 37.667C50.7871 36.4971 51.7447 35.5794 52.9398 35.01L52.7247 34.5586L52.9398 35.01C54.1347 34.4406 55.451 34.2745 56.7496 34.5296L56.7496 34.5296L65.2126 36.1911Z" fill="#FFBD54" stroke="black"/>
<path d="M64.4359 32.1955L64.4362 32.1959C65.333 33.1723 66.6117 33.6902 68.0593 33.635L68.0593 33.635C69.4392 33.5825 70.8058 33.0065 71.9019 31.9985C72.997 30.9905 73.6851 29.6767 73.8531 28.3058L64.4359 32.1955ZM64.4359 32.1955C64.0685 31.7964 63.7898 31.3433 63.5974 30.8562C62.843 28.9462 63.4108 26.4762 65.2578 24.7754C67.59 22.6333 70.9327 22.6282 72.7231 24.5764L72.7234 24.5767M64.4359 32.1955L72.7234 24.5767M72.7234 24.5767C73.62 25.5506 74.0289 26.8681 73.8531 28.3057L72.7234 24.5767Z" fill="#FFBD54" stroke="black"/>
<path d="M81.4908 41.6042C78.0047 42.9811 74.2958 41.5818 73.1419 38.6601C71.988 35.7389 73.7396 32.1831 77.2257 30.8061C80.7129 29.4288 84.4221 30.8277 85.5759 33.7489C86.7298 36.6705 84.9778 40.2268 81.4908 41.6042Z" fill="#FFBD54" stroke="black"/>
<path d="M87.6815 48.9214C87.7603 50.3469 87.1976 51.723 86.067 52.799L86.0669 52.7991C84.9853 53.8287 83.5078 54.4524 81.9006 54.541L81.9005 54.541C79.1024 54.6957 76.6956 53.1753 75.8534 51.0431C75.6731 50.5866 75.5634 50.1005 75.5351 49.5924L75.5335 49.564C75.3941 46.7213 77.9171 44.162 81.3157 43.9739L81.3158 43.9739C82.9228 43.8847 84.4601 44.3413 85.6487 45.2452L85.6487 45.2452C86.8911 46.1899 87.6025 47.4956 87.6815 48.9214ZM87.6815 48.9214L88.1807 48.8938M87.6815 48.9214L88.1807 48.8938M88.1807 48.8938C88.2683 50.4768 87.6401 51.9922 86.4117 53.1612L88.1807 48.8938ZM85.9511 44.8475L85.9508 44.8479L85.9511 44.8475Z" fill="#FFBD54" stroke="black"/>
<path d="M80.2199 61.4968C80.875 58.9473 79.0781 56.1508 76.0361 55.3378L80.2199 61.4968ZM80.2199 61.4968L80.2199 61.4968L80.2103 61.5326C79.5269 64.0889 76.5632 65.6349 73.5066 64.821L80.2199 61.4968ZM69.3323 58.6253L69.3323 58.6255C69.0813 59.5637 69.1611 60.527 69.5128 61.4173C70.1273 62.973 71.5739 64.3034 73.506 64.8208L69.3323 58.6253ZM69.3323 58.6253C70.0153 56.0696 72.979 54.5232 76.036 55.3377L69.3323 58.6253Z" fill="#FFBD54" stroke="black"/>
<path d="M3.81923 97.4041L4.28942 96.9319L15.6758 108.317L15.3986 108.592L12.3792 111.607C10.4446 113.546 6.32734 112.566 3.18059 109.424C0.0366716 106.276 -0.941708 102.16 0.992809 100.226L3.81426 97.4042H3.81923V97.4041Z" fill="#5A6E7F"/>
<path d="M7.0758 94.1938L18.4622 105.572L15.6759 108.317L4.28954 96.932L4.61484 96.6065L4.62396 96.6117L7.0758 94.1938Z" fill="#FFBD54"/>
<path d="M67.6357 0C92.138 0 112 19.867 112 44.3709C112 68.8738 92.138 88.7367 67.6357 88.7367C58.5515 88.7367 50.1192 86.0025 43.083 81.3189L18.4621 105.572L7.07571 94.1938L31.5358 70.1023C26.3488 62.8418 23.2652 53.9729 23.2652 44.3709C23.2653 19.867 43.1272 0 67.6357 0ZM67.029 75.5675C84.2562 75.5675 98.226 61.6016 98.226 44.3711C98.226 27.1392 84.2562 13.1745 67.029 13.1745C49.7977 13.1745 35.8309 27.1393 35.8309 44.3711C35.8309 61.6016 49.7977 75.5675 67.029 75.5675Z" fill="#333333"/>
</svg>

<svg xmlns="http://www.w3.org/2000/svg" width="112" height="113" fill="none"><path fill="#FFBD54" stroke="#000" d="M65.213 36.191a9.908 9.908 0 0 1 7.34 6.11 9.909 9.909 0 0 1-1.184 9.476l.406.293-.406-.293-5.043 6.996a6.07 6.07 0 0 1-3.11 2.253 6.07 6.07 0 0 1-3.841-.045 6.072 6.072 0 0 1-3.056-2.327 6.077 6.077 0 0 1-1.066-3.69 13.506 13.506 0 0 0-3.913-10.017l-.005-.004-.067-.066a6.07 6.07 0 0 1-1.743-3.423 6.073 6.073 0 0 1 .641-3.787 6.073 6.073 0 0 1 2.774-2.657l-.215-.451.215.451a6.07 6.07 0 0 1 3.81-.48l8.463 1.661ZM64.436 32.196c.897.976 2.176 1.494 3.623 1.439 1.38-.052 2.747-.628 3.843-1.636 1.095-1.008 1.783-2.322 1.951-3.693l-9.417 3.89Zm0 0a4.304 4.304 0 0 1-.839-1.34c-.754-1.91-.186-4.38 1.66-6.08 2.333-2.143 5.676-2.148 7.466-.2m-8.287 7.62 8.287-7.62m0 0c.897.975 1.306 2.292 1.13 3.73l-1.13-3.73ZM81.49 41.604c-3.485 1.377-7.194-.022-8.348-2.944-1.154-2.921.598-6.477 4.084-7.854 3.487-1.377 7.196.022 8.35 2.943 1.154 2.921-.598 6.478-4.085 7.855ZM87.681 48.921c.08 1.426-.483 2.802-1.614 3.878-1.082 1.03-2.56 1.653-4.166 1.742-2.799.155-5.205-1.366-6.048-3.498a4.639 4.639 0 0 1-.318-1.45l-.001-.029c-.14-2.843 2.383-5.402 5.782-5.59 1.607-.09 3.144.367 4.333 1.271 1.242.945 1.954 2.25 2.032 3.676Zm0 0 .5-.027m-.5.027.5-.027m0 0c.087 1.583-.54 3.098-1.77 4.267l1.77-4.267Zm-2.23-4.047ZM80.22 61.497c.655-2.55-1.142-5.346-4.184-6.16l4.184 6.16Zm0 0-.01.036c-.683 2.556-3.647 4.102-6.703 3.288l6.713-3.324Zm-10.888-2.872a4.429 4.429 0 0 0 .18 2.792c.615 1.556 2.062 2.886 3.994 3.404l-4.174-6.196Zm0 0c.683-2.555 3.647-4.102 6.704-3.287l-6.704 3.287Z"/><path fill="#5A6E7F" d="m3.82 97.404.47-.472 11.386 11.385-.277.275-3.02 3.015c-1.934 1.939-6.052.959-9.198-2.183-3.144-3.148-4.123-7.264-2.188-9.198l2.821-2.822h.005Z"/><path fill="#FFBD54" d="m7.076 94.194 11.386 11.378-2.786 2.745L4.29 96.932l.325-.326.009.006 2.452-2.418Z"/><path fill="#333" d="M67.636 0C92.138 0 112 19.867 112 44.37c0 24.504-19.862 44.367-44.364 44.367a44.141 44.141 0 0 1-24.553-7.418l-24.62 24.253L7.075 94.194l24.46-24.092c-5.187-7.26-8.27-16.13-8.27-25.731C23.265 19.867 43.126 0 67.635 0Zm-.607 75.567c17.227 0 31.197-13.965 31.197-31.196 0-17.232-13.97-31.197-31.197-31.197-17.231 0-31.198 13.965-31.198 31.197 0 17.23 13.967 31.196 31.198 31.196Z"/></svg>
